assets/img/braze_icons/bar-chart-square-minus.svg

<svg fill="none" height="24" viewBox="0 0 24 24" width="24" xmlns="http://www.w3.org/2000/svg"><g clip-rule="evenodd" fill="#801ed7" fill-rule="evenodd"><path d="m9.5 2.25453c0-.14057.11396-.25453.25453-.25453h8.08397c.5272-.00002.982-.00003 1.3565.03057.3954.0323.7886.10362 1.167.29641.5645.28762 1.0234.74657 1.311 1.31105.1928.37838.2641.7716.2964 1.16695.0306.37456.0306.82932.0306 1.35646v11.67716c0 .5271 0 .9819-.0306 1.3564-.0323.3954-.1036.7886-.2964 1.167-.2876.5645-.7465 1.0234-1.311 1.311-.3784.1928-.7716.2641-1.167.2964-.3745.0306-.8293.0306-1.3564.0306h-11.67716c-.52714 0-.9819 0-1.35647-.0306-.39534-.0323-.78856-.1036-1.16694-.2964-.56449-.2876-1.02343-.7465-1.31105-1.311-.19279-.3784-.26411-.7716-.29641-1.167-.0306-.3745-.03059-.8293-.03057-1.3564v-8.2386c0-.56005 0-.84008.10899-1.05399.09588-.18816.24886-.34114.43702-.43702.21391-.10899.49394-.10899 1.05399-.10899h4.4c1.65685 0 3-1.34315 3-3 0-1.05789-.5476-1.9879-1.37475-2.52205-.07633-.04929-.12525-.13256-.12525-.22342zm7.5 3.74547c.5523 0 1 .44772 1 1v10c0 .5523-.4477 1-1 1s-1-.4477-1-1v-10c0-.55228.4477-1 1-1zm-3 5c0-.5523-.4477-1-1-1s-1 .4477-1 1v6c0 .5523.4477 1 1 1s1-.4477 1-1zm-4 2c0-.5523-.44771-1-1-1-.55228 0-1 .4477-1 1v4c0 .5523.44772 1 1 1 .55229 0 1-.4477 1-1z"/><path d="m1 5c0-.55228.44772-1 1-1h6c.55228 0 1 .44772 1 1 0 .55229-.44772 1-1 1h-6c-.55228 0-1-.44771-1-1z"/></g></svg>

<svg width="24" height="24" viewBox="0 0 24 24" fill="none" xmlns="http://www.w3.org/2000/svg">
<path fill-rule="evenodd" clip-rule="evenodd" d="M9.5 2.25453C9.5 2.11396 9.61396 2 9.75453 2H17.8385C18.3657 1.99998 18.8205 1.99997 19.195 2.03057C19.5904 2.06287 19.9836 2.13419 20.362 2.32698C20.9265 2.6146 21.3854 3.07355 21.673 3.63803C21.8658 4.01641 21.9371 4.40963 21.9694 4.80498C22 5.17954 22 5.6343 22 6.16144V17.8386C22 18.3657 22 18.8205 21.9694 19.195C21.9371 19.5904 21.8658 19.9836 21.673 20.362C21.3854 20.9265 20.9265 21.3854 20.362 21.673C19.9836 21.8658 19.5904 21.9371 19.195 21.9694C18.8205 22 18.3657 22 17.8386 22H6.16144C5.6343 22 5.17954 22 4.80497 21.9694C4.40963 21.9371 4.01641 21.8658 3.63803 21.673C3.07354 21.3854 2.6146 20.9265 2.32698 20.362C2.13419 19.9836 2.06287 19.5904 2.03057 19.195C1.99997 18.8205 1.99998 18.3657 2 17.8386V9.6C2 9.03995 2 8.75992 2.10899 8.54601C2.20487 8.35785 2.35785 8.20487 2.54601 8.10899C2.75992 8 3.03995 8 3.6 8H8C9.65685 8 11 6.65685 11 5C11 3.94211 10.4524 3.0121 9.62525 2.47795C9.54892 2.42866 9.5 2.34539 9.5 2.25453ZM17 6C17.5523 6 18 6.44772 18 7V17C18 17.5523 17.5523 18 17 18C16.4477 18 16 17.5523 16 17V7C16 6.44772 16.4477 6 17 6ZM14 11C14 10.4477 13.5523 10 13 10C12.4477 10 12 10.4477 12 11V17C12 17.5523 12.4477 18 13 18C13.5523 18 14 17.5523 14 17V11ZM10 13C10 12.4477 9.55229 12 9 12C8.44772 12 8 12.4477 8 13V17C8 17.5523 8.44772 18 9 18C9.55229 18 10 17.5523 10 17V13Z" fill="#801ED7"/>
<path fill-rule="evenodd" clip-rule="evenodd" d="M1 5C1 4.44772 1.44772 4 2 4H8C8.55228 4 9 4.44772 9 5C9 5.55229 8.55228 6 8 6H2C1.44772 6 1 5.55229 1 5Z" fill="#801ED7"/>
</svg>
